X:1
T:New Year’s Day, 10.10.10.10
T:New Year’s Day, 10.10.10.10
T:Uzziah Christopher Burnap, 1895
T:Public Domain Courtesy of the Cyber Hymnal™
C:Uzziah Christopher Burnap, 1895
Z:Public Domain
Z:Courtesy of the Cyber Hymnal™
%%score ( 1 2 ) ( 3 4 )
L:1/8
Q:1/4=115
M:4/4
K:F
V:1 treble 
V:2 treble 
V:3 bass 
V:4 bass 
V:1
 [A,F]4 [CA]2 [CF]2 | [CE]4 [B,D]4 | [B,C]2 [B,D]2 [B,E]2 [B,C]2 | [A,A]8 | [^CA]4 [CB]2 [CA]2 | %5
 [DA]4 F4 | [=B,F]2 [B,D]2 [B,E]2 [B,F]2 | [CG]8 | [Ec]4 [Fc]2 [Gc]2 | [Fc]4 [FA]4 | %10
 [^Fd]2 [Fc]2 [FB]2 [FA]2 | B8 | [Ec]4 [Ed]2 [Ec]2 | [Fc]4 [^CA]4 | [DA]2 [DB]2 D2 [CE]2 | [CF]8 |] %16
V:2
 x8 | x8 | x8 | x8 | x8 | x4 (D2 C2) | x8 | x8 | x8 | x8 | x8 | (G4 F4) | x8 | x8 | x4 D2 x2 | %15
 x8 |] %16
V:3
 F,4 F,2 [A,,F,]2 | [B,,F,]4 [B,,F,]4 | [C,E,]2 [C,F,]2 [C,G,]2 [D,F,]2 | F,8 | %4
 [E,G,]4 [E,G,]2 [E,G,]2 | [D,F,]4 [D,A,]4 | [G,,G,]2 [G,,G,]2 [G,,G,]2 [G,,F,]2 | [C,E,]8 | %8
 [C,B,]4 [D,B,]2 [E,B,]2 | [F,A,]4 [F,C]4 | [D,C]2 [D,_E]2 [D,D]2 [D,C]2 | [G,B,]8 | %12
 [G,B,]4 [G,B,]2 [C,B,]2 | [F,A,]4 [A,,F,]4 | [B,,^F,]2 [B,,G,]2 [C,B,]2 [C,B,]2 | [F,,A,]8 |] %16
V:4
 F,4 F,2 x2 | x8 | x8 | F,8 | x8 | x8 | x8 | x8 | x8 | x8 | x8 | x8 | x8 | x8 | x8 | x8 |] %16

